X: 1532
T: Harvest Moon Schottische
B: australian traditional tunes wiki
M:4/4
L:1/8
R: Schottische
Q: 1/4=100
K:D
V:1 
(3ABc||"D"d2 A2 F2 D2|"A7"C>D E>F G2 G>A|"G"B2 G2 "A7"E2 C2|"D"D>E F>B "A7"A2 (3ABc|
"D"d2 A2 F2 D2|"A7"C>D E>F G2 G>A|"G"B>G E>D "A7"C>D E>G|"D"F2 D2 D2 F>G||
(3ABA F>A d2 c2|"G"(3BcB G>B e2 d2|"A7"(3cdc B>A f2 e2 |"D"(3dfe (3dcB "A7"A2 F>A|
"D"(3ABA F>A d2 c2 |"G"(3BcB G>B e2 d2|"A7"(3cdc B>A f>e B>c|"D"d2 f2 d2 ||
% abcbook-tune_id 6342d53a97caa02eb6c6d96e


% abcbook-boost 0
% abcbook-tablature 
% abcbook-transpose 
% abcbook-lastupdated 1665324369698
% abcbook-soundfonts 
% abcbook-repeats 1
% NFF Book 2006

